;FLAVOR:Marlin
;TIME:4040
;Filament used: 1.19563m, 0m
;Layer height: 0.15
;MINX:182.008
;MINY:122.007
;MINZ:0.2
;MAXX:237.992
;MAXY:177.986
;MAXZ:7.4
;Generated with StratosEngine 1.2.2
T0
M82 ;absolute extrusion mode
;Machine Model: Sigma D25 
;Materials used: T0 PLA  
;Extruders used: T0 0.4  
M141 S40 	;Set chamber temperature 
M140 S60 	;Heat build surface
M104 T0 S205	;Heat extruder 0
M190 S60 	;Wait until bed temperature reached 
M109 T0 S205	;Heat extruder 0 and wait
G21 		;metric values 
G90 		;absolute positioning 
M204 S2500 	;set default acceleration 
M205 X12.5 Y12.5 ;set default jerk 
M107 		;start with the fan off 
G28 X0 Y0 	;move X/Y to min endstops 
G28 Z0 		;move Z to min endstops 
G1 Z5 F200 	;safety Z axis movement

T0
G92 E0 		;set zero the extruded length 
G1 E10 F30
G92 E0 
G4 S2 		;stabilize hotend 
G1 E-0.5 F1000 
G92 E0

G4 P1
G4 P2
G4 P3

M141 S40
G92 E0
;LAYER_COUNT:49
;LAYER:0
M107
M204 S456
M205 X9.38 Y9.38
G1 F600 Z0.5
G0 F6000 X210.572 Y177.986 Z0.5
M204 S1425
;TYPE:SKIRT
G1 F600 Z0.2
G1 F1050 E0
G1 F1350 X209.178 Y177.981 E0.01748
G1 X207.776 Y177.904 E0.03509
G1 X206.419 Y177.762 E0.0522
G1 X205.013 Y177.544 E0.07004
G1 X203.631 Y177.258 E0.08774
G1 X202.298 Y176.912 E0.10501
G1 X200.943 Y176.485 E0.12283
G1 X199.676 Y176.017 E0.13976
G1 X198.363 Y175.459 E0.15766
G1 X197.129 Y174.858 E0.17487
G1 X195.893 Y174.177 E0.19256
G1 X194.701 Y173.441 E0.21013
G1 X193.567 Y172.66 E0.2274
G1 X192.443 Y171.801 E0.24514
G1 X191.347 Y170.872 E0.26316
G1 X190.374 Y169.96 E0.27988
G1 X189.403 Y168.955 E0.29741
G1 X188.458 Y167.874 E0.31541
G1 X187.599 Y166.785 E0.3328
G1 X186.807 Y165.672 E0.34994
G1 X186.042 Y164.476 E0.36774
G1 X185.343 Y163.249 E0.38545
G1 X184.727 Y162.032 E0.40255
G1 X184.147 Y160.73 E0.42043
G1 X183.656 Y159.461 E0.43749
G1 X183.213 Y158.123 E0.45517
G1 X182.843 Y156.782 E0.47261
G1 X182.544 Y155.449 E0.48974
G1 X182.294 Y153.992 E0.50828
G1 X182.137 Y152.679 E0.52486
G1 X182.034 Y151.229 E0.54309
G1 X182.008 Y149.907 E0.55967
G1 X182.049 Y148.49 E0.57745
G1 X182.159 Y147.11 E0.59481
G1 X182.342 Y145.693 E0.61273
G1 X182.59 Y144.327 E0.63014
G1 X182.903 Y142.98 E0.64748
G1 X183.287 Y141.637 E0.665
G1 X183.732 Y140.329 E0.68232
G1 X184.256 Y139.011 E0.70011
G1 X184.837 Y137.74 E0.71764
G1 X185.48 Y136.497 E0.73519
G1 X186.207 Y135.254 E0.75324
G1 X186.931 Y134.146 E0.76984
G1 X187.78 Y132.976 E0.78797
G1 X188.611 Y131.942 E0.80461
G1 X189.576 Y130.858 E0.82281
G1 X190.523 Y129.897 E0.83972
G1 X191.579 Y128.924 E0.85773
G1 X192.614 Y128.062 E0.87462
G1 X193.759 Y127.201 E0.89259
G1 X194.898 Y126.432 E0.90982
G1 X196.098 Y125.704 E0.92742
G1 X197.321 Y125.044 E0.94485
G1 X198.578 Y124.445 E0.96231
G1 X199.891 Y123.898 E0.98015
G1 X201.207 Y123.426 E0.99768
G1 X202.531 Y123.024 E1.01503
G1 X203.882 Y122.685 E1.0325
G1 X205.293 Y122.407 E1.05054
G1 X206.66 Y122.208 E1.06786
G1 X208.004 Y122.08 E1.08479
G1 X209.427 Y122.014 E1.10265
G1 X209.976 Y122.007 E1.10954
G1 X210.933 Y122.022 E1.12154
G1 X212.223 Y122.096 E1.13775
G1 X213.581 Y122.238 E1.15487
G1 X214.987 Y122.456 E1.17271
G1 X216.369 Y122.742 E1.19041
G1 X217.701 Y123.088 E1.20767
G1 X219.057 Y123.515 E1.2255
G1 X220.322 Y123.981 E1.2424
G1 X221.641 Y124.543 E1.26038
G1 X222.867 Y125.141 E1.27749
G1 X224.103 Y125.82 E1.29517
G1 X225.294 Y126.556 E1.31273
G1 X226.427 Y127.335 E1.32997
G1 X227.548 Y128.191 E1.34766
G1 X228.633 Y129.11 E1.36549
G1 X229.606 Y130.021 E1.3822
G1 X230.599 Y131.048 E1.40012
G1 X231.533 Y132.115 E1.4179
G1 X232.402 Y133.216 E1.43549
G1 X233.171 Y134.295 E1.45211
G1 X233.955 Y135.52 E1.47035
G1 X234.645 Y136.728 E1.48779
G1 X235.264 Y137.949 E1.50496
G1 X235.852 Y139.268 E1.52307
G1 X236.344 Y140.537 E1.54014
G1 X236.787 Y141.877 E1.55784
G1 X237.157 Y143.216 E1.57526
G1 X237.456 Y144.551 E1.59241
G1 X237.701 Y145.97 E1.61047
G1 X237.862 Y147.313 E1.62743
G1 X237.966 Y148.77 E1.64575
G1 X237.992 Y150.066 E1.66201
G1 X237.951 Y151.51 E1.68012
G1 X237.844 Y152.873 E1.69727
G1 X237.663 Y154.278 E1.71503
G1 X237.41 Y155.673 E1.73281
G1 X237.104 Y156.995 E1.74983
G1 X236.713 Y158.363 E1.76767
G1 X236.269 Y159.668 E1.78496
G1 X235.748 Y160.977 E1.80262
G1 X235.174 Y162.238 E1.82
G1 X234.52 Y163.503 E1.83786
G1 X233.809 Y164.721 E1.85554
G1 X233.069 Y165.854 E1.87251
G1 X232.22 Y167.024 E1.89064
G1 X231.389 Y168.058 E1.90728
G1 X230.424 Y169.142 E1.92548
G1 X229.477 Y170.103 E1.9424
G1 X228.435 Y171.065 E1.96018
G1 X227.388 Y171.937 E1.97727
G1 X226.262 Y172.785 E1.99494
G1 X225.102 Y173.567 E2.01249
G1 X223.905 Y174.295 E2.03006
G1 X222.679 Y174.956 E2.04752
G1 X221.422 Y175.555 E2.06499
G1 X220.109 Y176.102 E2.08282
G1 X218.793 Y176.574 E2.10036
G1 X217.471 Y176.976 E2.11768
G1 X216.115 Y177.314 E2.13521
G1 X214.711 Y177.593 E2.15316
G1 X213.341 Y177.792 E2.17052
G1 X211.996 Y177.92 E2.18746
G1 X210.572 Y177.986 E2.20534
M204 S456
G0 F6000 X210.557 Y177.587
M204 S1425
G1 F1350 X209.184 Y177.581 E2.22256
G1 X207.802 Y177.505 E2.23991
G1 X206.465 Y177.365 E2.25677
G1 X205.079 Y177.15 E2.27436
G1 X203.716 Y176.867 E2.29182
G1 X202.403 Y176.526 E2.30883
G1 X201.066 Y176.104 E2.32641
G1 X199.818 Y175.643 E2.3431
G1 X198.524 Y175.093 E2.36073
G1 X197.307 Y174.5 E2.37771
G1 X196.089 Y173.829 E2.39514
G1 X194.915 Y173.102 E2.41246
G1 X193.798 Y172.333 E2.42947
G1 X192.689 Y171.486 E2.44697
G1 X191.609 Y170.569 E2.46473
G1 X190.65 Y169.67 E2.48122
G1 X189.694 Y168.68 E2.49848
G1 X188.762 Y167.613 E2.51624
G1 X187.915 Y166.541 E2.53338
G1 X187.135 Y165.443 E2.55027
G1 X186.381 Y164.264 E2.56782
G1 X185.692 Y163.054 E2.58528
G1 X185.085 Y161.854 E2.60214
G1 X184.514 Y160.571 E2.61975
G1 X184.03 Y159.32 E2.63657
G1 X183.594 Y158.002 E2.65398
G1 X183.229 Y156.679 E2.67119
G1 X182.935 Y155.366 E2.68807
G1 X182.689 Y153.928 E2.70636
G1 X182.535 Y152.635 E2.72269
G1 X182.434 Y151.204 E2.74068
G1 X182.408 Y149.902 E2.75701
G1 X182.449 Y148.506 E2.77453
G1 X182.557 Y147.145 E2.79165
G1 X182.738 Y145.749 E2.8093
G1 X182.983 Y144.402 E2.82647
G1 X183.292 Y143.075 E2.84355
G1 X183.671 Y141.751 E2.86082
G1 X184.109 Y140.462 E2.8779
G1 X184.626 Y139.162 E2.89544
G1 X185.199 Y137.91 E2.91271
G1 X185.833 Y136.685 E2.93001
G1 X186.551 Y135.459 E2.94782
G1 X187.264 Y134.368 E2.96417
G1 X188.101 Y133.215 E2.98203
G1 X188.921 Y132.195 E2.99845
G1 X189.872 Y131.127 E3.01638
G1 X190.805 Y130.18 E3.03305
G1 X191.847 Y129.221 E3.05081
G1 X192.867 Y128.372 E3.06745
G1 X193.996 Y127.523 E3.08517
G1 X195.118 Y126.765 E3.10215
G1 X196.301 Y126.048 E3.11949
G1 X197.507 Y125.398 E3.13667
G1 X198.746 Y124.808 E3.15388
G1 X200.041 Y124.269 E3.17147
G1 X201.338 Y123.804 E3.18875
G1 X202.644 Y123.407 E3.20587
G1 X203.975 Y123.075 E3.22307
G1 X205.367 Y122.8 E3.24087
G1 X206.714 Y122.604 E3.25794
G1 X208.038 Y122.478 E3.27461
G1 X209.442 Y122.413 E3.29224
G1 X209.97 Y122.407 E3.29886
G1 X210.916 Y122.422 E3.31073
G1 X212.198 Y122.495 E3.32683
G1 X213.535 Y122.635 E3.34369
G1 X214.922 Y122.85 E3.36129
G1 X216.284 Y123.133 E3.37873
G1 X217.596 Y123.474 E3.39573
G1 X218.934 Y123.895 E3.41332
G1 X220.18 Y124.355 E3.42998
G1 X221.48 Y124.909 E3.4477
G1 X222.689 Y125.499 E3.46457
G1 X223.907 Y126.169 E3.482
G1 X225.081 Y126.894 E3.49931
G1 X226.198 Y127.662 E3.51631
G1 X227.302 Y128.506 E3.53373
G1 X228.372 Y129.413 E3.55132
G1 X229.33 Y130.31 E3.56778
G1 X230.309 Y131.322 E3.58544
G1 X231.229 Y132.375 E3.60297
G1 X232.085 Y133.46 E3.6203
G1 X232.843 Y134.525 E3.6367
G1 X233.616 Y135.732 E3.65467
G1 X234.296 Y136.923 E3.67187
G1 X234.906 Y138.127 E3.6888
G1 X235.486 Y139.428 E3.70666
G1 X235.969 Y140.678 E3.72346
G1 X236.406 Y141.998 E3.7409
G1 X236.77 Y143.319 E3.75808
G1 X237.065 Y144.634 E3.77498
G1 X237.306 Y146.034 E3.7928
G1 X237.464 Y147.357 E3.80951
G1 X237.566 Y148.795 E3.82759
G1 X237.592 Y150.07 E3.84358
G1 X237.551 Y151.494 E3.86144
G1 X237.445 Y152.838 E3.87835
G1 X237.266 Y154.223 E3.89586
G1 X237.017 Y155.598 E3.91339
G1 X236.715 Y156.901 E3.93016
G1 X236.33 Y158.249 E3.94774
G1 X235.892 Y159.535 E3.96478
G1 X235.378 Y160.826 E3.9822
G1 X234.811 Y162.069 E3.99933
G1 X234.167 Y163.315 E4.01692
G1 X233.465 Y164.516 E4.03437
G1 X232.736 Y165.632 E4.05109
G1 X231.899 Y166.785 E4.06895
G1 X231.079 Y167.805 E4.08536
G1 X230.128 Y168.873 E4.1033
G1 X229.195 Y169.82 E4.11997
G1 X228.167 Y170.768 E4.13751
G1 X227.135 Y171.627 E4.15434
G1 X226.025 Y172.462 E4.17176
G1 X224.882 Y173.234 E4.18906
G1 X223.701 Y173.95 E4.20638
G1 X222.493 Y174.602 E4.22359
G1 X221.254 Y175.192 E4.2408
G1 X219.959 Y175.731 E4.25839
G1 X218.662 Y176.196 E4.27567
G1 X217.359 Y176.592 E4.29275
G1 X216.022 Y176.925 E4.31003
G1 X214.636 Y177.2 E4.32775
G1 X213.287 Y177.396 E4.34484
G1 X211.962 Y177.522 E4.36153
G1 X210.557 Y177.587 E4.37917
M204 S456
G0 F6000 X210.543 Y177.187
M204 S1425
G1 F1350 X209.19 Y177.181 E4.39614
G1 X207.827 Y177.106 E4.41326
G1 X206.51 Y176.967 E4.42986
G1 X205.144 Y176.755 E4.4472
G1 X203.8 Y176.476 E4.46441
G1 X202.507 Y176.139 E4.48117
G1 X201.19 Y175.724 E4.49849
G1 X199.961 Y175.27 E4.51492
G1 X198.684 Y174.726 E4.53232
G1 X197.486 Y174.142 E4.54904
G1 X196.286 Y173.48 E4.56622
G1 X195.129 Y172.764 E4.58328
G1 X194.028 Y172.006 E4.60005
G1 X192.935 Y171.171 E4.6173
G1 X191.87 Y170.267 E4.63481
G1 X190.927 Y169.381 E4.65104
G1 X189.984 Y168.405 E4.66806
G1 X189.065 Y167.353 E4.68558
G1 X188.232 Y166.296 E4.70245
G1 X187.463 Y165.214 E4.7191
G1 X186.721 Y164.052 E4.73639
G1 X186.041 Y162.859 E4.75361
G1 X185.444 Y161.677 E4.77022
G1 X184.88 Y160.411 E4.7876
G1 X184.405 Y159.18 E4.80414
G1 X183.975 Y157.88 E4.82131
G1 X183.616 Y156.577 E4.83826
G1 X183.326 Y155.282 E4.8549
G1 X183.084 Y153.864 E4.87294
G1 X182.932 Y152.591 E4.88902
G1 X182.833 Y151.18 E4.90676
G1 X182.808 Y149.898 E4.92284
G1 X182.848 Y148.522 E4.9401
G1 X182.956 Y147.18 E4.95699
G1 X183.134 Y145.804 E4.97438
G1 X183.375 Y144.476 E4.99131
G1 X183.68 Y143.169 E5.00814
G1 X184.054 Y141.865 E5.02515
G1 X184.487 Y140.595 E5.04198
G1 X184.996 Y139.314 E5.05927
G1 X185.561 Y138.08 E5.07629
G1 X186.187 Y136.872 E5.09335
G1 X186.894 Y135.664 E5.1109
G1 X187.597 Y134.59 E5.127
G1 X188.422 Y133.453 E5.14461
G1 X189.23 Y132.449 E5.16077
G1 X190.168 Y131.396 E5.17846
G1 X191.087 Y130.463 E5.19488
G1 X192.115 Y129.518 E5.21239
G1 X193.12 Y128.682 E5.22879
G1 X194.233 Y127.845 E5.24625
G1 X195.339 Y127.099 E5.26298
G1 X196.504 Y126.393 E5.28006
G1 X197.694 Y125.752 E5.29701
G1 X198.915 Y125.17 E5.31398
G1 X200.191 Y124.64 E5.3313
G1 X201.47 Y124.182 E5.34834
G1 X202.757 Y123.791 E5.36521
G1 X204.068 Y123.464 E5.38215
G1 X205.441 Y123.193 E5.3997
G1 X206.768 Y123.001 E5.41651
G1 X208.072 Y122.877 E5.43294
G1 X209.456 Y122.813 E5.45032
G1 X209.964 Y122.807 E5.45669
G1 X211.235 Y122.836 E5.47263
G1 X212.172 Y122.894 E5.4844
G1 X213.49 Y123.033 E5.50102
G1 X214.856 Y123.245 E5.51836
G1 X216.2 Y123.524 E5.53557
G1 X217.492 Y123.861 E5.55232
G1 X218.81 Y124.276 E5.56964
G1 X220.038 Y124.729 E5.58606
G1 X221.32 Y125.276 E5.60354
G1 X222.511 Y125.857 E5.62015
G1 X223.71 Y126.517 E5.63732
G1 X224.867 Y127.233 E5.65438
G1 X225.968 Y127.989 E5.67113
G1 X227.056 Y128.822 E5.68831
G1 X228.11 Y129.716 E5.70564
G1 X229.054 Y130.6 E5.72186
G1 X230.018 Y131.597 E5.73925
G1 X230.926 Y132.636 E5.75656
G1 X231.769 Y133.705 E5.77363
G1 X232.515 Y134.754 E5.78977
G1 X233.277 Y135.944 E5.80749
G1 X233.946 Y137.118 E5.82444
G1 X234.548 Y138.305 E5.84113
G1 X235.119 Y139.587 E5.85873
G1 X235.595 Y140.819 E5.87529
G1 X236.025 Y142.12 E5.89247
G1 X236.384 Y143.421 E5.9094
G1 X236.674 Y144.718 E5.92606
G1 X236.911 Y146.098 E5.94362
G1 X237.067 Y147.401 E5.96008
G1 X237.167 Y148.819 E5.97791
G1 X237.192 Y150.075 E5.99366
G1 X237.152 Y151.478 E6.01126
G1 X237.047 Y152.803 E6.02793
G1 X236.87 Y154.168 E6.04519
G1 X236.625 Y155.524 E6.06247
G1 X236.326 Y156.806 E6.07898
G1 X235.946 Y158.135 E6.09631
G1 X235.515 Y159.402 E6.1131
G1 X235.008 Y160.674 E6.13027
G1 X234.449 Y161.899 E6.14715
G1 X233.813 Y163.128 E6.16451
G1 X233.121 Y164.311 E6.18169
G1 X232.403 Y165.41 E6.19816
G1 X231.578 Y166.547 E6.21577
G1 X230.77 Y167.551 E6.23193
G1 X229.832 Y168.604 E6.24962
G1 X228.913 Y169.537 E6.26604
G1 X227.899 Y170.471 E6.28333
G1 X226.882 Y171.317 E6.29992
G1 X225.788 Y172.14 E6.31709
G1 X224.661 Y172.9 E6.33413
G1 X223.497 Y173.606 E6.35121
G1 X222.306 Y174.248 E6.36817
G1 X221.085 Y174.83 E6.38514
G1 X219.809 Y175.36 E6.40246
G1 X218.53 Y175.818 E6.4195
G1 X217.246 Y176.208 E6.43633
G1 X215.93 Y176.536 E6.45333
G1 X214.562 Y176.807 E6.47082
G1 X213.233 Y176.999 E6.48766
G1 X211.928 Y177.123 E6.5041
G1 X210.543 Y177.187 E6.52149
M204 S456
G1 F1800 E2.52149
;MESH:pieza_rueda_imprimir_3d_2-Cut.obj
G0 F6000 X210.588 Y173.374
G0 X215.79 Y148.831
M204 S1425
;TYPE:WALL-INNER
G1 F1050 E6.52149
G1 F1350 X215.442 Y147.706 E6.53626
G1 X214.88 Y146.673 E6.551
G1 X214.125 Y145.771 E6.56575
G1 X213.204 Y145.037 E6.58052
G1 X212.158 Y144.502 E6.59526
G1 X211.026 Y144.182 E6.61001
G1 X209.853 Y144.094 E6.62476
G1 X208.685 Y144.241 E6.63952
G1 X207.571 Y144.617 E6.65427
G1 X206.553 Y145.203 E6.669
G1 X205.668 Y145.983 E6.68379
G1 X204.954 Y146.931 E6.69867
G1 X204.938 Y146.966 E6.69916
G1 X204.448 Y147.979 E6.71327
G1 X204.157 Y149.119 E6.72802
G1 X204.102 Y150.294 E6.74277
G1 X204.274 Y151.457 E6.75752
G1 X204.679 Y152.564 E6.7723
G1 X205.29 Y153.566 E6.78702
G1 X206.091 Y154.428 E6.80177
G1 X207.047 Y155.115 E6.81653
G1 X208.119 Y155.6 E6.83129
G1 X209.265 Y155.861 E6.84603
G1 X210.441 Y155.89 E6.86078
G1 X211.601 Y155.686 E6.87555
G1 X212.707 Y155.249 E6.89046
G1 X213.693 Y154.61 E6.9052
G1 X214.532 Y153.787 E6.91994
G1 X215.188 Y152.824 E6.93455
G1 X215.644 Y151.739 E6.94931
G1 X215.871 Y150.622 E6.9636
G1 X215.902 Y149.977 E6.9717
G1 X215.79 Y148.831 E6.98614
M204 S456
G0 F6000 X215.396 Y148.91
M204 S1425
G1 F1350 X215.072 Y147.862 E6.9999
G1 X214.548 Y146.899 E7.01364
G1 X213.844 Y146.059 E7.02739
G1 X212.986 Y145.375 E7.04115
G1 X212.011 Y144.876 E7.05488
G1 X210.956 Y144.578 E7.06863
G1 X209.863 Y144.496 E7.08238
G1 X208.775 Y144.633 E7.09613
G1 X207.736 Y144.983 E7.10988
G1 X206.787 Y145.53 E7.12361
G1 X205.963 Y146.256 E7.13739
G1 X205.297 Y147.14 E7.15126
G1 X204.826 Y148.117 E7.16487
G1 X204.555 Y149.179 E7.17861
G1 X204.503 Y150.274 E7.19236
G1 X204.664 Y151.358 E7.2061
G1 X205.041 Y152.389 E7.21987
G1 X205.611 Y153.323 E7.23359
G1 X206.357 Y154.127 E7.24734
G1 X207.248 Y154.767 E7.2611
G1 X208.247 Y155.219 E7.27485
G1 X209.315 Y155.462 E7.28859
G1 X210.411 Y155.489 E7.30233
G1 X211.492 Y155.299 E7.3161
G1 X212.523 Y154.892 E7.33
G1 X213.442 Y154.296 E7.34373
G1 X214.224 Y153.529 E7.35747
G1 X214.835 Y152.632 E7.37108
G1 X215.26 Y151.621 E7.38483
G1 X215.473 Y150.572 E7.39826
G1 X215.501 Y149.987 E7.4056
G1 X215.396 Y148.91 E7.41917
M204 S456
G0 F6000 X215.002 Y148.989
M204 S1425
G1 F1350 X214.702 Y148.018 E7.43192
G1 X214.216 Y147.125 E7.44467
G1 X213.563 Y146.347 E7.4574
G1 X212.768 Y145.713 E7.47016
G1 X211.864 Y145.25 E7.48289
G1 X210.886 Y144.974 E7.49564
G1 X209.873 Y144.898 E7.50837
G1 X208.865 Y145.025 E7.52112
G1 X207.901 Y145.349 E7.53387
G1 X207.021 Y145.857 E7.54661
G1 X206.258 Y146.529 E7.55936
G1 X205.64 Y147.349 E7.57224
G1 X205.204 Y148.255 E7.58485
G1 X204.953 Y149.239 E7.59758
G1 X204.904 Y150.254 E7.61032
G1 X205.054 Y151.259 E7.62307
G1 X205.403 Y152.214 E7.63582
G1 X205.932 Y153.08 E7.64854
G1 X206.623 Y153.826 E7.6613
G1 X207.449 Y154.419 E7.67405
G1 X208.375 Y154.838 E7.68679
G1 X209.365 Y155.063 E7.69952
G1 X210.381 Y155.088 E7.71227
G1 X211.383 Y154.912 E7.72503
G1 X212.339 Y154.535 E7.73791
G1 X213.191 Y153.982 E7.75065
G1 X213.916 Y153.271 E7.76339
G1 X214.482 Y152.44 E7.77599
G1 X214.876 Y151.503 E7.78874
G1 X215.075 Y150.522 E7.80129
G1 X215.1 Y149.997 E7.80789
G1 X215.002 Y148.989 E7.82059
M204 S456
G0 F6000 X214.608 Y149.068
M204 S1425
;TYPE:WALL-OUTER
G1 F1350 X214.332 Y148.174 E7.83232
G1 X213.884 Y147.352 E7.84406
G1 X213.282 Y146.635 E7.8558
G1 X212.55 Y146.051 E7.86754
G1 X211.717 Y145.624 E7.87928
G1 X210.816 Y145.37 E7.89102
G1 X209.883 Y145.3 E7.90275
G1 X208.954 Y145.417 E7.9145
G1 X208.066 Y145.715 E7.92624
G1 X207.256 Y146.183 E7.93797
G1 X206.553 Y146.802 E7.94972
