;FLAVOR:Marlin
;TIME:9314
;Filament used: 2.4963m, 0m
;Layer height: 0.15
;MINX:159.5
;MINY:134.2
;MINZ:0.2
;MAXX:264.3
;MAXY:165.8
;MAXZ:18.95
;Generated with StratosEngine 1.2.2
T0
M82 ;absolute extrusion mode
;Machine Model: Sigma D25 
;Materials used: T0 PLA  
;Extruders used: T0 0.4  
M141 S40 	;Set chamber temperature 
M140 S60 	;Heat build surface
M104 T0 S205	;Heat extruder 0
M190 S60 	;Wait until bed temperature reached 
M109 T0 S205	;Heat extruder 0 and wait
G21 		;metric values 
G90 		;absolute positioning 
M204 S2500 	;set default acceleration 
M205 X12.5 Y12.5 ;set default jerk 
M107 		;start with the fan off 
G28 X0 Y0 	;move X/Y to min endstops 
G28 Z0 		;move Z to min endstops 
G1 Z5 F200 	;safety Z axis movement

T0
G92 E0 		;set zero the extruded length 
G1 E10 F30
G92 E0 
G4 S2 		;stabilize hotend 
G1 E-0.5 F1000 
G92 E0

G4 P1
G4 P2
G4 P3

M141 S40
G92 E0
;LAYER_COUNT:126
;LAYER:0
M107
M204 S456
M205 X9.38 Y9.38
G1 F600 Z0.5
G0 F6000 X166.705 Y165.8 Z0.5
M204 S1425
;TYPE:SKIRT
G1 F600 Z0.2
G1 F1050 E0
G1 F1350 X165.472 Y165.744 E0.01548
G1 X164.951 Y165.618 E0.0222
G1 X164.454 Y165.416 E0.02893
G1 X163.993 Y165.143 E0.03565
G1 X163.577 Y164.804 E0.04238
G1 X163.216 Y164.408 E0.0491
G1 X162.918 Y163.962 E0.05582
G1 X162.69 Y163.476 E0.06255
G1 X162.537 Y162.962 E0.06928
G1 X162.445 Y161.925 E0.08234
G1 X162.443 Y154.862 E0.17091
G1 X162.456 Y153.966 E0.18215
G1 X162.527 Y151.427 E0.214
G1 X162.527 Y148.697 E0.24823
G1 X162.495 Y147.243 E0.26647
G1 X162.444 Y145.464 E0.28879
G1 X162.443 Y138.457 E0.37666
G1 X162.499 Y137.229 E0.39208
G1 X162.625 Y136.708 E0.3988
G1 X162.827 Y136.211 E0.40552
G1 X163.1 Y135.749 E0.41225
G1 X163.439 Y135.334 E0.41897
G1 X163.836 Y134.973 E0.4257
G1 X164.282 Y134.675 E0.43243
G1 X164.767 Y134.447 E0.43915
G1 X165.281 Y134.294 E0.44588
G1 X166.356 Y134.201 E0.45941
G1 X260.045 Y134.2 E1.6343
G1 X261.277 Y134.258 E1.64977
G1 X261.798 Y134.384 E1.65649
G1 X262.295 Y134.587 E1.66322
G1 X262.756 Y134.861 E1.66995
G1 X263.171 Y135.2 E1.67667
G1 X263.531 Y135.598 E1.6834
G1 X263.828 Y136.044 E1.69012
G1 X264.056 Y136.53 E1.69685
G1 X264.208 Y137.044 E1.70357
G1 X264.299 Y138.025 E1.71593
G1 X264.3 Y161.509 E2.01042
G1 X264.244 Y162.77 E2.02625
G1 X264.119 Y163.291 E2.03297
G1 X263.917 Y163.788 E2.0397
G1 X263.644 Y164.25 E2.04643
G1 X263.306 Y164.666 E2.05315
G1 X262.909 Y165.027 E2.05988
G1 X262.463 Y165.325 E2.06661
G1 X261.978 Y165.553 E2.07333
G1 X261.464 Y165.707 E2.08006
G1 X260.471 Y165.799 E2.09256
G1 X166.705 Y165.8 E3.26842
M204 S456
G0 F6000 X166.71 Y165.4
M204 S1425
G1 F1350 X165.508 Y165.344 E3.28351
G1 X165.018 Y165.219 E3.28985
G1 X164.554 Y165.018 E3.2962
G1 X164.128 Y164.747 E3.30253
G1 X163.749 Y164.412 E3.30887
G1 X163.428 Y164.021 E3.31521
G1 X163.173 Y163.585 E3.32155
G1 X162.989 Y163.114 E3.32789
G1 X162.854 Y162.272 E3.33858
G1 X162.844 Y161.834 E3.34408
G1 X162.843 Y154.868 E3.43143
G1 X162.856 Y153.978 E3.4426
G1 X162.927 Y151.439 E3.47445
G1 X162.927 Y148.688 E3.50895
G1 X162.895 Y147.258 E3.52688
G1 X162.845 Y145.557 E3.54822
G1 X162.843 Y138.463 E3.63719
G1 X162.899 Y137.265 E3.65223
G1 X163.024 Y136.775 E3.65857
G1 X163.225 Y136.311 E3.66491
G1 X163.496 Y135.885 E3.67124
G1 X163.831 Y135.506 E3.67758
G1 X164.222 Y135.185 E3.68393
G1 X164.658 Y134.93 E3.69026
G1 X165.129 Y134.746 E3.6966
G1 X165.971 Y134.611 E3.7073
G1 X166.447 Y134.6 E3.71327
G1 X260.039 Y134.6 E4.88695
G1 X261.24 Y134.657 E4.90202
G1 X261.73 Y134.783 E4.90837
G1 X262.194 Y134.985 E4.91471
G1 X262.62 Y135.257 E4.92105
G1 X262.998 Y135.592 E4.92739
G1 X263.318 Y135.983 E4.93372
G1 X263.573 Y136.42 E4.94007
G1 X263.756 Y136.891 E4.9464
G1 X263.89 Y137.719 E4.95692
G1 X263.9 Y138.127 E4.96204
G1 X263.9 Y161.504 E5.2552
G1 X263.845 Y162.734 E5.27064
G1 X263.72 Y163.224 E5.27698
G1 X263.519 Y163.688 E5.28332
G1 X263.248 Y164.115 E5.28966
G1 X262.913 Y164.494 E5.29601
G1 X262.523 Y164.815 E5.30234
G1 X262.087 Y165.071 E5.30868
G1 X261.616 Y165.254 E5.31502
G1 X260.781 Y165.39 E5.32563
G1 X260.37 Y165.4 E5.33078
G1 X166.71 Y165.4 E6.50531
M204 S456
G1 F1800 E2.50531
;MESH:pieza_rueda_loca_imprimir_3d-Cut.obj
G0 F6000 X166.71 Y161.58
G0 X245.728 Y154.828
G0 X255.093 Y152.251
M204 S1425
;TYPE:WALL-INNER
G1 F1050 E6.50531
G1 F1350 X255.816 Y151.389 E6.51942
G1 X256.122 Y150.479 E6.53146
G1 X256.158 Y149.788 E6.54014
G1 X255.897 Y148.769 E6.55333
G1 X255.306 Y147.947 E6.56603
G1 X254.466 Y147.372 E6.57879
G1 X253.371 Y147.122 E6.59288
G1 X252.248 Y147.32 E6.60718
G1 X251.304 Y147.93 E6.62127
G1 X250.702 Y148.769 E6.63422
G1 X250.423 Y149.858 E6.64832
G1 X250.593 Y150.967 E6.66239
G1 X251.1 Y151.846 E6.67511
G1 X251.878 Y152.499 E6.68785
G1 X252.943 Y152.856 E6.70194
G1 X254.077 Y152.771 E6.7162
G1 X255.093 Y152.251 E6.73051
M204 S456
G0 F6000 X254.839 Y151.932
M204 S1425
G1 F1350 X255.461 Y151.19 E6.74265
G1 X255.725 Y150.404 E6.75305
G1 X255.755 Y149.828 E6.76028
G1 X255.528 Y148.941 E6.77176
G1 X255.022 Y148.237 E6.78264
G1 X254.303 Y147.745 E6.79356
G1 X253.361 Y147.53 E6.80568
G1 X252.397 Y147.7 E6.81795
G1 X251.585 Y148.225 E6.83008
G1 X251.071 Y148.941 E6.84113
G1 X250.831 Y149.878 E6.85326
G1 X250.977 Y150.832 E6.86537
G1 X251.411 Y151.585 E6.87626
G1 X252.077 Y152.144 E6.88717
G1 X252.994 Y152.451 E6.8993
G1 X253.967 Y152.378 E6.91153
G1 X254.839 Y151.932 E6.92381
M204 S456
G0 F6000 X254.585 Y151.613
M204 S1425
G1 F1350 X255.106 Y150.991 E6.93399
G1 X255.328 Y150.329 E6.94274
G1 X255.352 Y149.868 E6.94853
G1 X255.159 Y149.113 E6.95831
G1 X254.738 Y148.527 E6.96735
G1 X254.14 Y148.118 E6.97644
G1 X253.351 Y147.938 E6.98659
G1 X252.546 Y148.08 E6.99684
G1 X251.866 Y148.52 E7.007
G1 X251.44 Y149.113 E7.01615
G1 X251.239 Y149.898 E7.02631
G1 X251.361 Y150.697 E7.03645
G1 X251.722 Y151.324 E7.04552
G1 X252.276 Y151.789 E7.05459
G1 X253.044 Y152.046 E7.06475
G1 X253.857 Y151.985 E7.07497
G1 X254.585 Y151.613 E7.08523
M204 S456
G0 F6000 X254.331 Y151.294
M204 S1425
;TYPE:WALL-OUTER
G1 F1350 X254.751 Y150.792 E7.09343
G1 X254.931 Y150.254 E7.10055
G1 X254.949 Y149.908 E7.10489
G1 X254.79 Y149.285 E7.11296
G1 X254.454 Y148.817 E7.12018
G1 X253.977 Y148.491 E7.12743
G1 X253.341 Y148.346 E7.13561
G1 X252.695 Y148.46 E7.14383
G1 X252.147 Y148.815 E7.15202
G1 X251.809 Y149.285 E7.15928
G1 X251.647 Y149.918 E7.16747
G1 X251.745 Y150.563 E7.17566
G1 X252.033 Y151.063 E7.18289
G1 X252.475 Y151.434 E7.19013
G1 X253.094 Y151.641 E7.19831
G1 X253.747 Y151.592 E7.20653
G1 X254.331 Y151.294 E7.21475
M204 S456
G0 F6000 X254.459 Y151.141
G0 X254.796 Y151.424
G0 X254.841 Y151.463
G0 X246.5 Y155.6
M204 S1425
;TYPE:WALL-INNER
G1 F1350 X246.5 Y144.4 E7.3552
G1 X167.444 Y144.4 E8.34659
G1 X167.443 Y139.399 E8.40931
G1 X167.443 Y139.2 E8.4118
G1 X167.642 Y139.2 E8.41342
G1 X259.3 Y139.2 E9.56284
G1 X259.3 Y160.8 E9.83371
G1 X167.444 Y160.8 E10.98562
G1 X167.443 Y155.799 E11.04834
G1 X167.443 Y155.6 E11.05083
G1 X167.642 Y155.6 E11.05245
G1 X246.5 Y155.6 E12.04135
M204 S456
G0 F6000 X246.1 Y155.2
M204 S1425
G1 F1350 X246.1 Y144.8 E12.17177
G1 X167.044 Y144.8 E13.16317
G1 X167.043 Y138.999 E13.23591
G1 X167.043 Y138.8 E13.23841
G1 X167.242 Y138.8 E13.24002
G1 X259.7 Y138.8 E14.39948
G1 X259.7 Y161.2 E14.68038
G1 X167.044 Y161.2 E15.84233
G1 X167.043 Y155.399 E15.91507
G1 X167.043 Y155.2 E15.91757
G1 X167.242 Y155.2 E15.91918
G1 X246.1 Y155.2 E16.90809
M204 S456
G0 F6000 X245.7 Y154.8
M204 S1425
G1 F1350 X245.7 Y145.2 E17.02848
G1 X166.644 Y145.2 E18.01987
G1 X166.643 Y138.599 E18.10265
G1 X166.643 Y138.4 E18.10514
G1 X166.842 Y138.4 E18.10676
G1 X260.1 Y138.4 E19.27625
G1 X260.1 Y161.6 E19.56719
G1 X166.644 Y161.6 E20.73916
G1 X166.643 Y154.999 E20.82194
G1 X166.643 Y154.8 E20.82443
G1 X166.842 Y154.8 E20.82605
G1 X245.7 Y154.8 E21.81496
M204 S456
G0 F6000 X245.3 Y154.4
M204 S1425
;TYPE:WALL-OUTER
G1 F1350 X245.3 Y145.6 E21.92531
G1 X166.244 Y145.6 E22.9167
G1 X166.243 Y138.2 E23.0095
G1 X166.243 Y138 E23.01201
G1 X166.443 Y138 E23.01363
G1 X260.5 Y138 E24.19314
G1 X260.5 Y162 E24.49411
G1 X166.244 Y162 E25.67612
G1 X166.243 Y154.6 E25.76892
G1 X166.243 Y154.4 E25.77142
G1 X166.443 Y154.4 E25.77305
G1 X245.3 Y154.4 E26.76194
M204 S456
G0 F6000 X245.3 Y154.2
G0 X245.74 Y154.2
G0 X245.8 Y154.2
G0 X246.89 Y155.99
M204 S1425
;TYPE:SKIN
G1 F1350 X246.89 Y144.01 E26.91218
G1 X167.834 Y144.01 E27.90357
G1 X167.833 Y139.59 E27.959
G1 X258.91 Y139.59 E29.10114
G1 X258.91 Y160.41 E29.36223
G1 X167.834 Y160.41 E30.50435
G1 X167.833 Y155.99 E30.55978
G1 X246.89 Y155.99 E31.55119
M204 S456
G0 F6000 X250.219 Y151.098
M204 S1425
G1 F1350 X250.796 Y152.101 E31.5657
G1 X251.684 Y152.846 E31.58023
G1 X252.894 Y153.25 E31.59623
G1 X254.184 Y153.154 E31.61245
G1 X255.341 Y152.563 E31.62875
G1 X256.163 Y151.584 E31.64478
G1 X256.508 Y150.553 E31.65841
G1 X256.55 Y149.749 E31.66851
G1 X256.256 Y148.601 E31.68337
G1 X255.583 Y147.664 E31.69783
G1 X254.626 Y147.008 E31.71238
G1 X253.381 Y146.724 E31.7284
G1 X252.102 Y146.95 E31.74469
G1 X251.031 Y147.643 E31.76068
G1 X250.343 Y148.601 E31.77547
G1 X250.025 Y149.838 E31.79149
G1 X250.219 Y151.098 E31.80748
M204 S456
G0 F6000 X251.404 Y149.097
G0 X258.609 Y140.381
M204 S1425
G1 F1350 X258.118 Y139.89 E31.81619
G1 X258.609 Y139.89 E31.82234
M204 S456
G0 F6000 X258.118 Y139.89
M204 S1425
G1 F1350 X257.553 Y139.89 E31.82943
G1 X258.609 Y140.946 E31.84816
G1 X258.609 Y141.512 E31.85525
G1 X256.987 Y139.89 E31.88402
G1 X256.421 Y139.89 E31.89112
G1 X258.609 Y142.078 E31.92992
G1 X258.609 Y142.643 E31.93701
G1 X255.855 Y139.89 E31.98584
G1 X255.29 Y139.89 E31.99292
G1 X258.609 Y143.209 E32.05179
G1 X258.609 Y143.775 E32.05888
G1 X254.724 Y139.89 E32.12778
G1 X254.158 Y139.89 E32.13488
G1 X258.609 Y144.341 E32.21382
G1 X258.609 Y144.906 E32.2209
G1 X253.593 Y139.89 E32.30986
G1 X253.027 Y139.89 E32.31696
G1 X258.609 Y145.472 E32.41595
G1 X258.609 Y146.038 E32.42305
G1 X252.461 Y139.89 E32.53209
G1 X251.896 Y139.89 E32.53917
G1 X258.609 Y146.603 E32.65822
G1 X258.609 Y147.169 E32.66532
G1 X251.33 Y139.89 E32.79441
G1 X250.764 Y139.89 E32.80151
G1 X258.609 Y147.735 E32.94064
G1 X258.609 Y148.3 E32.94773
G1 X250.199 Y139.89 E33.09688
G1 X249.633 Y139.89 E33.10397
G1 X258.609 Y148.866 E33.26316
G1 X258.609 Y149.432 E33.27026
G1 X249.067 Y139.89 E33.43948
G1 X248.502 Y139.89 E33.44657
G1 X258.609 Y149.997 E33.62581
G1 X258.609 Y150.563 E33.63291
G1 X256.535 Y148.489 E33.66969
G1 X256.531 Y148.472 E33.66991
G1 X255.795 Y147.445 E33.68576
M204 S456
G0 F6000 X254.829 Y146.783
M204 S1425
G1 F1350 X247.936 Y139.89 E33.808
G1 X247.37 Y139.89 E33.8151
G1 X254.048 Y146.568 E33.93353
G1 X253.388 Y146.418 E33.94202
G1 X253.34 Y146.426 E33.94263
G1 X246.805 Y139.89 E34.05854
G1 X246.239 Y139.89 E34.06564
G1 X252.859 Y146.511 E34.18305
G1 X252.379 Y146.595 E34.18916
G1 X245.673 Y139.89 E34.30808
G1 X245.107 Y139.89 E34.31518
G1 X251.923 Y146.706 E34.43606
G1 X251.58 Y146.929 E34.44119
G1 X244.542 Y139.89 E34.56601
G1 X243.976 Y139.89 E34.57311
G1 X251.237 Y147.151 E34.70188
G1 X250.894 Y147.373 E34.70701
G1 X243.41 Y139.89 E34.83973
G1 X242.845 Y139.89 E34.84681
G1 X246.665 Y143.71 E34.91456
G1 X246.099 Y143.71 E34.92166
G1 X242.279 Y139.89 E34.9894
G1 X241.713 Y139.89 E34.9965
G1 X245.533 Y143.71 E35.06425
G1 X244.967 Y143.71 E35.07135
G1 X241.148 Y139.89 E35.13908
G1 X240.582 Y139.89 E35.14618
G1 X244.402 Y143.71 E35.21393
G1 X243.836 Y143.71 E35.22103
G1 X240.016 Y139.89 E35.28877
G1 X239.451 Y139.89 E35.29586
G1 X243.27 Y143.71 E35.3636
G1 X242.705 Y143.71 E35.37068
G1 X238.885 Y139.89 E35.43843
G1 X238.319 Y139.89 E35.44553
G1 X242.139 Y143.71 E35.51327
G1 X241.573 Y143.71 E35.52037
G1 X237.754 Y139.89 E35.58811
G1 X237.188 Y139.89 E35.59521
G1 X241.008 Y143.71 E35.66295
G1 X240.442 Y143.71 E35.67005
G1 X236.622 Y139.89 E35.7378
G1 X236.056 Y139.89 E35.7449
G1 X239.876 Y143.71 E35.81264
G1 X239.311 Y143.71 E35.81973
G1 X235.491 Y139.89 E35.88747
G1 X234.925 Y139.89 E35.89457
G1 X238.745 Y143.71 E35.96232
G1 X238.179 Y143.71 E35.96942
G1 X234.359 Y139.89 E36.03716
G1 X233.794 Y139.89 E36.04425
G1 X237.614 Y143.71 E36.112
G1 X237.048 Y143.71 E36.11909
G1 X233.228 Y139.89 E36.18684
G1 X232.662 Y139.89 E36.19394
G1 X236.482 Y143.71 E36.26168
G1 X235.916 Y143.71 E36.26878
G1 X232.097 Y139.89 E36.33652
G1 X231.531 Y139.89 E36.34362
G1 X235.351 Y143.71 E36.41137
G1 X234.785 Y143.71 E36.41846
G1 X230.965 Y139.89 E36.48621
G1 X230.4 Y139.89 E36.4933
G1 X234.219 Y143.71 E36.56103
G1 X233.654 Y143.71 E36.56812
G1 X229.834 Y139.89 E36.63587
G1 X229.268 Y139.89 E36.64296
G1 X233.088 Y143.71 E36.71071
G1 X232.522 Y143.71 E36.71781
G1 X228.703 Y139.89 E36.78555
G1 X228.137 Y139.89 E36.79264
G1 X231.957 Y143.71 E36.86039
G1 X231.391 Y143.71 E36.86749
G1 X227.571 Y139.89 E36.93523
G1 X227.006 Y139.89 E36.94232
G1 X230.825 Y143.71 E37.01006
G1 X230.26 Y143.71 E37.01714
G1 X226.44 Y139.89 E37.08489
G1 X225.874 Y139.89 E37.09199
G1 X229.694 Y143.71 E37.15973
G1 X229.128 Y143.71 E37.16683
G1 X225.308 Y139.89 E37.23458
G1 X224.743 Y139.89 E37.24166
G1 X228.563 Y143.71 E37.30941
G1 X227.997 Y143.71 E37.31651
G1 X224.177 Y139.89 E37.38426
G1 X223.611 Y139.89 E37.39135
G1 X227.431 Y143.71 E37.4591
G1 X226.866 Y143.71 E37.46619
G1 X223.046 Y139.89 E37.53393
G1 X222.48 Y139.89 E37.54103
G1 X226.3 Y143.71 E37.60878
G1 X225.734 Y143.71 E37.61588
G1 X221.914 Y139.89 E37.68362
G1 X221.349 Y139.89 E37.69071
G1 X225.168 Y143.71 E37.75845
G1 X224.603 Y143.71 E37.76553
G1 X220.783 Y139.89 E37.83328
G1 X220.217 Y139.89 E37.84038
G1 X224.037 Y143.71 E37.90812
G1 X223.471 Y143.71 E37.91522
G1 X219.652 Y139.89 E37.98296
G1 X219.086 Y139.89 E37.99006
G1 X222.906 Y143.71 E38.0578
G1 X222.34 Y143.71 E38.0649
G1 X218.52 Y139.89 E38.13265
G1 X217.955 Y139.89 E38.13973
G1 X221.774 Y143.71 E38.20747
G1 X221.209 Y143.71 E38.21456
G1 X217.389 Y139.89 E38.2823
G1 X216.823 Y139.89 E38.2894
G1 X220.643 Y143.71 E38.35715
G1 X220.077 Y143.71 E38.36425
G1 X216.258 Y139.89 E38.43198
G1 X215.692 Y139.89 E38.43908
G1 X219.512 Y143.71 E38.50683
G1 X218.946 Y143.71 E38.51393
G1 X215.126 Y139.89 E38.58167
G1 X214.56 Y139.89 E38.58877
G1 X218.38 Y143.71 E38.65652
G1 X217.815 Y143.71 E38.6636
G1 X213.995 Y139.89 E38.73135
G1 X213.429 Y139.89 E38.73845
G1 X217.249 Y143.71 E38.80619
G1 X216.683 Y143.71 E38.81329
G1 X212.863 Y139.89 E38.88104
G1 X212.298 Y139.89 E38.88812
G1 X216.117 Y143.71 E38.95586
G1 X215.552 Y143.71 E38.96295
G1 X211.732 Y139.89 E39.03069
G1 X211.166 Y139.89 E39.03779
G1 X214.986 Y143.71 E39.10554
G1 X214.42 Y143.71 E39.11264
G1 X210.601 Y139.89 E39.18037
G1 X210.035 Y139.89 E39.18747
G1 X213.855 Y143.71 E39.25522
G1 X213.289 Y143.71 E39.26232
G1 X209.469 Y139.89 E39.33006
G1 X208.904 Y139.89 E39.33715
G1 X212.723 Y143.71 E39.40489
G1 X212.158 Y143.71 E39.41197
G1 X208.338 Y139.89 E39.47972
G1 X207.772 Y139.89 E39.48682
G1 X211.592 Y143.71 E39.55456
G1 X211.026 Y143.71 E39.56166
G1 X207.207 Y139.89 E39.6294
G1 X206.641 Y139.89 E39.6365
G1 X210.461 Y143.71 E39.70424
G1 X209.895 Y143.71 E39.71134
G1 X206.075 Y139.89 E39.77909
G1 X205.509 Y139.89 E39.78619
G1 X209.329 Y143.71 E39.85393
G1 X208.764 Y143.71 E39.86102
G1 X204.944 Y139.89 E39.92877
G1 X204.378 Y139.89 E39.93586
G1 X208.198 Y143.71 E40.00361
G1 X207.632 Y143.71 E40.01071
G1 X203.812 Y139.89 E40.07845
G1 X203.247 Y139.89 E40.08554
G1 X207.067 Y143.71 E40.15329
G1 X206.501 Y143.71 E40.16038
G1 X202.681 Y139.89 E40.22813
G1 X202.115 Y139.89 E40.23523
G1 X205.935 Y143.71 E40.30298
G1 X205.369 Y143.71 E40.31007
G1 X201.55 Y139.89 E40.37781
G1 X200.984 Y139.89 E40.38491
G1 X204.804 Y143.71 E40.45266
G1 X204.238 Y143.71 E40.45975
G1 X200.418 Y139.89 E40.5275
G1 X199.853 Y139.89 E40.53459
G1 X203.672 Y143.71 E40.60232
G1 X203.107 Y143.71 E40.60941
G1 X199.287 Y139.89 E40.67716
G1 X198.721 Y139.89 E40.68425
G1 X202.541 Y143.71 E40.752
G1 X201.975 Y143.71 E40.7591
G1 X198.156 Y139.89 E40.82684
G1 X197.59 Y139.89 E40.83393
G1 X201.41 Y143.71 E40.90168
G1 X200.844 Y143.71 E40.90878
G1 X197.024 Y139.89 E40.97653
G1 X196.459 Y139.89 E40.98361
G1 X200.278 Y143.71 E41.05135
G1 X199.713 Y143.71 E41.05843
G1 X195.893 Y139.89 E41.12618
G1 X195.327 Y139.89 E41.13328
