;FLAVOR:Marlin
;TIME:4676
;Filament used: 1.24384m, 0m
;Layer height: 0.15
;MINX:182.008
;MINY:109.629
;MINZ:0.2
;MAXX:237.992
;MAXY:165.607
;MAXZ:7.4
;Generated with StratosEngine 1.2.2
T0
M82 ;absolute extrusion mode
;Machine Model: Sigma D25 
;Materials used: T0 PLA  
;Extruders used: T0 0.4  
M141 S40 	;Set chamber temperature 
M140 S60 	;Heat build surface
M104 T0 S205	;Heat extruder 0
M190 S60 	;Wait until bed temperature reached 
M109 T0 S205	;Heat extruder 0 and wait
G21 		;metric values 
G90 		;absolute positioning 
M204 S2500 	;set default acceleration 
M205 X12.5 Y12.5 ;set default jerk 
M107 		;start with the fan off 
G28 X0 Y0 	;move X/Y to min endstops 
G28 Z0 		;move Z to min endstops 
G1 Z5 F200 	;safety Z axis movement

T0
G92 E0 		;set zero the extruded length 
G1 E10 F30
G92 E0 
G4 S2 		;stabilize hotend 
G1 E-0.5 F1000 
G92 E0

G4 P1
G4 P2
G4 P3

M141 S40
G92 E0
;LAYER_COUNT:49
;LAYER:0
M107
M204 S456
M205 X9.38 Y9.38
G1 F600 Z0.5
G0 F6000 X210.572 Y165.607 Z0.5
M204 S1425
;TYPE:SKIRT
G1 F600 Z0.2
G1 F1050 E0
G1 F1350 X209.178 Y165.602 E0.01748
G1 X207.776 Y165.525 E0.03509
G1 X206.36 Y165.376 E0.05294
G1 X205.031 Y165.169 E0.06981
G1 X203.682 Y164.891 E0.08708
G1 X202.269 Y164.524 E0.10539
G1 X201.022 Y164.134 E0.12178
G1 X199.646 Y163.627 E0.14017
G1 X198.359 Y163.078 E0.15771
G1 X197.133 Y162.48 E0.17482
G1 X195.893 Y161.798 E0.19257
G1 X194.701 Y161.062 E0.21013
G1 X193.567 Y160.281 E0.2274
G1 X192.443 Y159.422 E0.24514
G1 X191.347 Y158.493 E0.26316
G1 X190.374 Y157.581 E0.27988
G1 X189.403 Y156.576 E0.29741
G1 X188.464 Y155.501 E0.31531
G1 X187.613 Y154.427 E0.33249
G1 X186.803 Y153.287 E0.35003
G1 X186.05 Y152.11 E0.36755
G1 X185.348 Y150.879 E0.38532
G1 X184.718 Y149.637 E0.40278
G1 X184.141 Y148.339 E0.4206
G1 X183.665 Y147.109 E0.43714
G1 X183.212 Y145.745 E0.45516
G1 X182.843 Y144.404 E0.4726
G1 X182.544 Y143.07 E0.48975
G1 X182.294 Y141.612 E0.5083
G1 X182.13 Y140.238 E0.52565
G1 X182.036 Y138.871 E0.54283
G1 X182.008 Y137.532 E0.55963
G1 X182.05 Y136.081 E0.57783
G1 X182.16 Y134.716 E0.59501
G1 X182.339 Y133.33 E0.61253
G1 X182.592 Y131.93 E0.63037
G1 X182.901 Y130.604 E0.64745
G1 X183.286 Y129.262 E0.66495
G1 X183.732 Y127.952 E0.68231
G1 X184.256 Y126.632 E0.70012
G1 X184.837 Y125.361 E0.71764
G1 X185.48 Y124.118 E0.73519
G1 X186.179 Y122.922 E0.75256
G1 X186.928 Y121.771 E0.76979
G1 X187.777 Y120.602 E0.7879
G1 X188.612 Y119.562 E0.80463
G1 X189.575 Y118.481 E0.82278
G1 X190.52 Y117.521 E0.83968
G1 X191.601 Y116.526 E0.8581
G1 X192.595 Y115.699 E0.87432
G1 X193.782 Y114.807 E0.89294
G1 X194.898 Y114.054 E0.90982
G1 X196.11 Y113.319 E0.92759
G1 X197.337 Y112.657 E0.94508
G1 X198.578 Y112.066 E0.96232
G1 X199.891 Y111.518 E0.98016
G1 X201.209 Y111.046 E0.99771
G1 X202.531 Y110.645 E1.01504
G1 X203.882 Y110.306 E1.03251
G1 X205.284 Y110.03 E1.05042
G1 X206.662 Y109.829 E1.06789
G1 X208.019 Y109.7 E1.08498
G1 X209.428 Y109.635 E1.10267
G1 X209.986 Y109.629 E1.10967
G1 X211.277 Y109.658 E1.12586
G1 X212.255 Y109.72 E1.13815
G1 X213.631 Y109.866 E1.1555
G1 X214.969 Y110.074 E1.17248
G1 X216.369 Y110.363 E1.19041
G1 X217.702 Y110.709 E1.20768
G1 X219.057 Y111.136 E1.2255
G1 X220.324 Y111.604 E1.24243
G1 X221.638 Y112.162 E1.26034
G1 X222.866 Y112.761 E1.27747
G1 X224.088 Y113.433 E1.29496
G1 X225.296 Y114.179 E1.31276
G1 X226.423 Y114.955 E1.32992
G1 X227.532 Y115.8 E1.34741
G1 X228.643 Y116.741 E1.36567
G1 X229.588 Y117.626 E1.3819
G1 X230.595 Y118.664 E1.40004
G1 X231.531 Y119.734 E1.41787
G1 X232.387 Y120.818 E1.43519
G1 X233.197 Y121.954 E1.45268
G1 X233.95 Y123.132 E1.47022
G1 X234.646 Y124.351 E1.48782
G1 X235.265 Y125.572 E1.50499
G1 X235.852 Y126.889 E1.52307
G1 X236.344 Y128.158 E1.54014
G1 X236.787 Y129.498 E1.55783
G1 X237.161 Y130.85 E1.57542
G1 X237.464 Y132.216 E1.59297
G1 X237.698 Y133.576 E1.61028
G1 X237.865 Y134.951 E1.62765
G1 X237.964 Y136.366 E1.64543
G1 X237.992 Y137.707 E1.66226
G1 X237.951 Y139.131 E1.68012
G1 X237.84 Y140.532 E1.69774
G1 X237.663 Y141.899 E1.71503
G1 X237.411 Y143.293 E1.73279
G1 X237.096 Y144.645 E1.7502
G1 X236.706 Y146.008 E1.76798
G1 X236.269 Y147.288 E1.78494
G1 X235.739 Y148.626 E1.80299
G1 X235.172 Y149.864 E1.82007
G1 X234.509 Y151.143 E1.83813
G1 X233.834 Y152.301 E1.85494
G1 X233.072 Y153.472 E1.87246
G1 X232.235 Y154.625 E1.89033
G1 X231.347 Y155.729 E1.9081
G1 X230.426 Y156.761 E1.92544
G1 X229.475 Y157.727 E1.94244
G1 X228.438 Y158.684 E1.96014
G1 X227.385 Y159.56 E1.97731
G1 X226.264 Y160.404 E1.99491
G1 X225.104 Y161.188 E2.01247
G1 X223.901 Y161.917 E2.03011
G1 X222.676 Y162.578 E2.04756
G1 X221.422 Y163.176 E2.06499
G1 X220.103 Y163.726 E2.08291
G1 X218.847 Y164.179 E2.09965
G1 X217.452 Y164.603 E2.11793
G1 X216.123 Y164.934 E2.13511
G1 X214.716 Y165.214 E2.1531
G1 X213.341 Y165.413 E2.17052
G1 X211.995 Y165.541 E2.18748
G1 X210.572 Y165.607 E2.20534
M204 S456
G0 F6000 X210.557 Y165.208
M204 S1425
G1 F1350 X209.184 Y165.202 E2.22256
G1 X207.802 Y165.126 E2.23992
G1 X206.406 Y164.978 E2.25752
G1 X205.096 Y164.774 E2.27415
G1 X203.766 Y164.5 E2.29118
G1 X202.373 Y164.138 E2.30923
G1 X201.145 Y163.754 E2.32536
G1 X199.788 Y163.254 E2.3435
G1 X198.519 Y162.711 E2.36081
G1 X197.311 Y162.122 E2.37766
G1 X196.089 Y161.45 E2.39515
G1 X194.915 Y160.723 E2.41246
G1 X193.798 Y159.954 E2.42947
G1 X192.689 Y159.107 E2.44697
G1 X191.609 Y158.19 E2.46474
G1 X190.65 Y157.291 E2.48122
G1 X189.694 Y156.301 E2.49848
G1 X188.767 Y155.241 E2.51614
G1 X187.929 Y154.181 E2.53308
G1 X187.131 Y153.059 E2.55035
G1 X186.389 Y151.898 E2.56763
G1 X185.697 Y150.684 E2.58515
G1 X185.076 Y149.46 E2.60236
G1 X184.508 Y148.18 E2.61993
G1 X184.039 Y146.967 E2.63623
G1 X183.593 Y145.623 E2.65399
G1 X183.229 Y144.301 E2.67119
G1 X182.935 Y142.987 E2.68807
G1 X182.689 Y141.548 E2.70638
G1 X182.528 Y140.194 E2.72348
G1 X182.435 Y138.847 E2.74041
G1 X182.408 Y137.527 E2.75697
G1 X182.45 Y136.097 E2.77491
G1 X182.558 Y134.751 E2.79184
G1 X182.735 Y133.386 E2.8091
G1 X182.985 Y132.005 E2.8267
G1 X183.29 Y130.698 E2.84353
G1 X183.669 Y129.375 E2.86079
G1 X184.109 Y128.084 E2.8779
G1 X184.626 Y126.783 E2.89545
G1 X185.199 Y125.531 E2.91272
G1 X185.833 Y124.306 E2.93002
G1 X186.522 Y123.127 E2.94714
G1 X187.261 Y121.993 E2.96412
G1 X188.098 Y120.84 E2.98198
G1 X188.922 Y119.816 E2.99847
G1 X189.871 Y118.75 E3.01636
G1 X190.802 Y117.804 E3.03301
G1 X191.869 Y116.823 E3.05118
G1 X192.848 Y116.008 E3.06716
G1 X194.019 Y115.13 E3.08551
G1 X195.118 Y114.388 E3.10214
G1 X196.314 Y113.663 E3.11968
G1 X197.523 Y113.011 E3.13691
G1 X198.746 Y112.429 E3.15389
G1 X200.041 Y111.889 E3.17149
G1 X201.34 Y111.424 E3.18879
G1 X202.644 Y111.028 E3.20588
G1 X203.975 Y110.696 E3.22308
G1 X205.357 Y110.423 E3.24075
G1 X206.716 Y110.226 E3.25797
G1 X208.053 Y110.098 E3.27481
G1 X209.442 Y110.035 E3.29225
G1 X209.98 Y110.029 E3.29899
G1 X211.262 Y110.057 E3.31507
G1 X212.219 Y110.119 E3.3271
G1 X213.585 Y110.263 E3.34433
G1 X214.904 Y110.469 E3.36107
G1 X216.285 Y110.754 E3.37875
G1 X217.597 Y111.095 E3.39575
G1 X218.934 Y111.517 E3.41333
G1 X220.182 Y111.978 E3.43002
G1 X221.477 Y112.529 E3.44766
G1 X222.687 Y113.119 E3.46455
G1 X223.891 Y113.782 E3.48178
G1 X225.082 Y114.517 E3.49933
G1 X226.193 Y115.282 E3.51625
G1 X227.286 Y116.116 E3.53349
G1 X228.381 Y117.043 E3.55148
G1 X229.312 Y117.915 E3.56748
G1 X230.305 Y118.939 E3.58537
G1 X231.228 Y119.995 E3.60295
G1 X232.071 Y121.063 E3.62002
G1 X232.869 Y122.183 E3.63726
G1 X233.611 Y123.344 E3.65454
G1 X234.297 Y124.546 E3.6719
G1 X234.907 Y125.75 E3.68882
G1 X235.486 Y127.049 E3.70666
G1 X235.969 Y128.299 E3.72346
G1 X236.406 Y129.619 E3.7409
G1 X236.774 Y130.953 E3.75825
G1 X237.073 Y132.299 E3.77554
G1 X237.303 Y133.64 E3.79261
G1 X237.467 Y134.995 E3.80972
G1 X237.565 Y136.39 E3.82726
G1 X237.592 Y137.711 E3.84383
G1 X237.551 Y139.116 E3.86145
G1 X237.442 Y140.497 E3.87883
G1 X237.266 Y141.844 E3.89586
G1 X237.018 Y143.219 E3.91338
G1 X236.708 Y144.55 E3.93052
G1 X236.323 Y145.894 E3.94805
G1 X235.892 Y147.156 E3.96478
G1 X235.368 Y148.474 E3.98256
G1 X234.81 Y149.694 E3.99939
G1 X234.156 Y150.955 E4.0172
G1 X233.491 Y152.096 E4.03376
G1 X232.739 Y153.25 E4.05104
G1 X231.914 Y154.387 E4.06865
G1 X231.037 Y155.476 E4.08619
G1 X230.129 Y156.492 E4.10327
G1 X229.193 Y157.443 E4.12001
G1 X228.17 Y158.387 E4.13746
G1 X227.132 Y159.25 E4.15439
G1 X226.027 Y160.082 E4.17174
G1 X224.884 Y160.854 E4.18903
G1 X223.698 Y161.573 E4.20643
G1 X222.49 Y162.224 E4.22364
G1 X221.254 Y162.813 E4.2408
G1 X219.952 Y163.356 E4.2585
G1 X218.715 Y163.801 E4.27498
G1 X217.34 Y164.219 E4.293
G1 X216.03 Y164.545 E4.30993
G1 X214.642 Y164.82 E4.32768
G1 X213.288 Y165.017 E4.34484
G1 X211.961 Y165.143 E4.36155
G1 X210.557 Y165.208 E4.37918
M204 S456
G0 F6000 X210.543 Y164.808
M204 S1425
G1 F1350 X209.19 Y164.802 E4.39614
G1 X207.827 Y164.727 E4.41326
G1 X206.452 Y164.581 E4.4306
G1 X205.161 Y164.379 E4.44699
G1 X203.85 Y164.109 E4.46377
G1 X202.478 Y163.752 E4.48155
G1 X201.268 Y163.373 E4.49745
G1 X199.931 Y162.88 E4.51532
G1 X198.68 Y162.345 E4.53239
G1 X197.489 Y161.764 E4.549
G1 X196.286 Y161.101 E4.56623
G1 X195.129 Y160.385 E4.58329
G1 X194.028 Y159.627 E4.60005
G1 X192.935 Y158.792 E4.6173
G1 X191.87 Y157.888 E4.63482
G1 X190.927 Y157.002 E4.65105
G1 X189.984 Y156.026 E4.66807
G1 X189.07 Y154.98 E4.68549
G1 X188.245 Y153.936 E4.70217
G1 X187.459 Y152.83 E4.71919
G1 X186.727 Y151.685 E4.73623
G1 X186.046 Y150.489 E4.75349
G1 X185.435 Y149.282 E4.77045
G1 X184.875 Y148.02 E4.78777
G1 X184.414 Y146.826 E4.80382
G1 X183.974 Y145.501 E4.82133
G1 X183.616 Y144.199 E4.83826
G1 X183.326 Y142.903 E4.85492
G1 X183.084 Y141.484 E4.87297
G1 X182.925 Y140.15 E4.88981
G1 X182.835 Y138.823 E4.90649
G1 X182.808 Y137.523 E4.9228
G1 X182.849 Y136.112 E4.9405
G1 X182.957 Y134.787 E4.95717
G1 X183.131 Y133.442 E4.97418
G1 X183.378 Y132.081 E4.99153
G1 X183.678 Y130.792 E5.00812
G1 X184.053 Y129.489 E5.02513
G1 X184.486 Y128.217 E5.04198
G1 X184.996 Y126.935 E5.05928
G1 X185.561 Y125.701 E5.0763
G1 X186.187 Y124.493 E5.09336
G1 X186.866 Y123.331 E5.11024
G1 X187.594 Y122.215 E5.12695
G1 X188.42 Y121.078 E5.14457
G1 X189.231 Y120.069 E5.1608
G1 X190.167 Y119.019 E5.17844
G1 X191.084 Y118.087 E5.19484
G1 X192.137 Y117.12 E5.21277
G1 X193.101 Y116.318 E5.22849
G1 X194.255 Y115.452 E5.24659
G1 X195.339 Y114.721 E5.26298
G1 X196.517 Y114.007 E5.28026
G1 X197.709 Y113.365 E5.29724
G1 X198.915 Y112.792 E5.31398
G1 X200.191 Y112.26 E5.33132
G1 X201.471 Y111.802 E5.34836
G1 X202.757 Y111.412 E5.36522
G1 X204.068 Y111.085 E5.38216
G1 X205.431 Y110.816 E5.39958
G1 X206.769 Y110.622 E5.41654
G1 X208.088 Y110.497 E5.43315
G1 X209.456 Y110.435 E5.45033
G1 X209.974 Y110.429 E5.45682
G1 X211.248 Y110.457 E5.4728
G1 X212.592 Y110.553 E5.4897
G1 X213.54 Y110.661 E5.50166
G1 X214.839 Y110.864 E5.51815
G1 X216.2 Y111.145 E5.53558
G1 X217.493 Y111.482 E5.55234
G1 X218.81 Y111.897 E5.56965
G1 X220.039 Y112.351 E5.58608
G1 X221.317 Y112.895 E5.6035
G1 X222.508 Y113.477 E5.62012
G1 X223.695 Y114.13 E5.63711
G1 X224.869 Y114.855 E5.65442
G1 X225.963 Y115.609 E5.67108
G1 X227.04 Y116.432 E5.68808
G1 X228.12 Y117.346 E5.70582
G1 X229.036 Y118.205 E5.72157
G1 X230.015 Y119.215 E5.73921
G1 X230.924 Y120.256 E5.75654
G1 X231.755 Y121.307 E5.77334
G1 X232.54 Y122.411 E5.79033
G1 X233.273 Y123.557 E5.80739
G1 X233.948 Y124.741 E5.82448
G1 X234.549 Y125.928 E5.84116
G1 X235.119 Y127.208 E5.85873
G1 X235.595 Y128.44 E5.8753
G1 X236.025 Y129.741 E5.89248
G1 X236.387 Y131.055 E5.90957
G1 X236.682 Y132.382 E5.92662
G1 X236.908 Y133.704 E5.94344
G1 X237.069 Y135.04 E5.96031
G1 X237.165 Y136.414 E5.97759
G1 X237.192 Y137.716 E5.99392
G1 X237.152 Y139.1 E6.01128
G1 X237.043 Y140.462 E6.02841
G1 X236.87 Y141.789 E6.0452
G1 X236.625 Y143.144 E6.06246
G1 X236.319 Y144.454 E6.07933
G1 X235.939 Y145.779 E6.09662
G1 X235.515 Y147.023 E6.1131
G1 X234.998 Y148.323 E6.13065
G1 X234.448 Y149.524 E6.14721
G1 X233.803 Y150.767 E6.16477
G1 X233.147 Y151.892 E6.1811
G1 X232.406 Y153.028 E6.19811
G1 X231.593 Y154.148 E6.21547
G1 X230.728 Y155.223 E6.23277
G1 X229.833 Y156.223 E6.2496
G1 X228.911 Y157.16 E6.26608
G1 X227.902 Y158.09 E6.28329
G1 X226.88 Y158.939 E6.29995
G1 X225.79 Y159.76 E6.31707
G1 X224.663 Y160.521 E6.33412
G1 X223.495 Y161.228 E6.35124
G1 X222.304 Y161.87 E6.36821
G1 X221.085 Y162.451 E6.38514
G1 X219.802 Y162.985 E6.40257
G1 X218.584 Y163.424 E6.41881
G1 X217.227 Y163.835 E6.43659
G1 X215.937 Y164.156 E6.45326
G1 X214.568 Y164.427 E6.47076
G1 X213.234 Y164.62 E6.48766
G1 X211.927 Y164.744 E6.50413
G1 X210.543 Y164.808 E6.5215
M204 S456
G1 F1800 E2.5215
;MESH:pieza_rueda_imprimir_3d-Cut006.obj
G0 F6000 X211.743 Y160.937
G0 X225.982 Y139.861
M204 S1425
;TYPE:WALL-INNER
G1 F1050 E6.5215
G1 F1350 X227.074 Y139.666 E6.53541
G1 X227.939 Y138.976 E6.54929
G1 X228.369 Y137.958 E6.56314
G1 X228.26 Y136.854 E6.57706
G1 X227.635 Y135.936 E6.59098
G1 X226.65 Y135.434 E6.60485
G1 X225.541 Y135.461 E6.61876
G1 X224.583 Y136.016 E6.63264
G1 X224.045 Y136.895 E6.64557
G1 X223.922 Y137.691 E6.65567
G1 X224.18 Y138.697 E6.66869
G1 X224.932 Y139.507 E6.68255
G1 X225.982 Y139.861 E6.69645
M204 S456
G0 F6000 X226.013 Y139.449
M204 S1425
G1 F1350 X226.904 Y139.29 E6.7078
G1 X227.61 Y138.727 E6.71912
G1 X227.961 Y137.896 E6.73043
G1 X227.872 Y136.995 E6.74179
G1 X227.362 Y136.246 E6.75315
G1 X226.558 Y135.836 E6.76447
G1 X225.653 Y135.858 E6.77582
G1 X224.871 Y136.311 E6.78715
G1 X224.428 Y137.035 E6.7978
G1 X224.33 Y137.671 E6.80587
G1 X224.542 Y138.499 E6.81659
G1 X225.156 Y139.16 E6.8279
G1 X226.013 Y139.449 E6.83924
M204 S456
G0 F6000 X226.044 Y139.037
M204 S1425
G1 F1350 X226.734 Y138.914 E6.84803
G1 X227.281 Y138.478 E6.8568
G1 X227.553 Y137.834 E6.86557
G1 X227.484 Y137.136 E6.87437
G1 X227.089 Y136.556 E6.88317
G1 X226.466 Y136.238 E6.89194
G1 X225.765 Y136.255 E6.90073
G1 X225.159 Y136.606 E6.90951
G1 X224.811 Y137.175 E6.91788
G1 X224.738 Y137.651 E6.92392
G1 X224.904 Y138.301 E6.93233
G1 X225.38 Y138.813 E6.9411
G1 X226.044 Y139.037 E6.94988
M204 S456
G0 F6000 X226.075 Y138.625
M204 S1425
;TYPE:WALL-OUTER
G1 F1350 X226.564 Y138.538 E6.95611
G1 X226.952 Y138.229 E6.96233
G1 X227.145 Y137.772 E6.96855
G1 X227.096 Y137.277 E6.97479
G1 X226.816 Y136.866 E6.98103
G1 X226.374 Y136.64 E6.98725
G1 X225.877 Y136.652 E6.99349
G1 X225.447 Y136.901 E6.99972
G1 X225.194 Y137.315 E7.0058
G1 X225.146 Y137.631 E7.00981
G1 X225.266 Y138.103 E7.01592
G1 X225.604 Y138.466 E7.02214
G1 X226.075 Y138.625 E7.02837
M204 S456
G0 F6000 X226.272 Y138.59
G0 X226.348 Y139.023
G0 X226.358 Y139.083
G0 X209.832 Y156.011
M204 S1425
;TYPE:WALL-INNER
G1 F1350 X210.924 Y155.816 E7.04228
G1 X211.789 Y155.126 E7.05616
G1 X212.219 Y154.108 E7.07002
G1 X212.11 Y153.004 E7.08393
G1 X211.485 Y152.086 E7.09786
G1 X210.5 Y151.584 E7.11172
G1 X209.391 Y151.611 E7.12563
G1 X208.433 Y152.166 E7.13952
G1 X207.895 Y153.045 E7.15244
G1 X207.772 Y153.841 E7.16254
G1 X208.03 Y154.847 E7.17556
G1 X208.782 Y155.657 E7.18942
G1 X209.832 Y156.011 E7.20332
M204 S456
G0 F6000 X209.863 Y155.599
M204 S1425
G1 F1350 X210.754 Y155.44 E7.21467
G1 X211.46 Y154.877 E7.22599
G1 X211.811 Y154.046 E7.23731
G1 X211.722 Y153.145 E7.24866
G1 X211.212 Y152.396 E7.26002
G1 X210.408 Y151.986 E7.27134
G1 X209.503 Y152.008 E7.28269
G1 X208.721 Y152.461 E7.29403
G1 X208.278 Y153.185 E7.30467
G1 X208.18 Y153.821 E7.31274
G1 X208.392 Y154.649 E7.32346
G1 X209.006 Y155.31 E7.33477
G1 X209.863 Y155.599 E7.34611
M204 S456
G0 F6000 X209.894 Y155.187
M204 S1425
G1 F1350 X210.584 Y155.064 E7.3549
G1 X211.131 Y154.628 E7.36368
G1 X211.403 Y153.984 E7.37244
G1 X211.334 Y153.286 E7.38124
G1 X210.939 Y152.706 E7.39004
G1 X210.316 Y152.388 E7.39881
G1 X209.615 Y152.405 E7.4076
G1 X209.009 Y152.756 E7.41639
G1 X208.661 Y153.325 E7.42475
G1 X208.588 Y153.801 E7.43079
G1 X208.754 Y154.451 E7.4392
G1 X209.23 Y154.963 E7.44797
G1 X209.894 Y155.187 E7.45676
M204 S456
G0 F6000 X209.925 Y154.775
M204 S1425
;TYPE:WALL-OUTER
G1 F1350 X210.414 Y154.688 E7.46298
G1 X210.802 Y154.379 E7.4692
G1 X210.995 Y153.922 E7.47543
G1 X210.946 Y153.427 E7.48166
G1 X210.666 Y153.016 E7.4879
